X:1
T:Ríl Bóthúna
M:4/4
L:1/8
C:Pat Simmonds
R:Reel
N:Bothuna is a small boreen in Spiddal, Conamara, where I lived for a few years.
K:D
dB|A~F3 AFEF|DEFA BAFA|B2dB BAFA|dBAF E3dB|
A~F3 AFEF|DEFA BAFA|BAGF GABc|1dfec d3dB:|2dfec d4:|
 B3c dcde|f2af fecB|A3B c2Bc|e~c3 fcec|
B3c dcde|f2af fecA|BAGF GABc|1dfec d4:| 2dfec d3dc:|

